X:173
T: ES WAR EINMAL EIN JUNGER KNAB
N: E0093B
O: Europa, Mitteleuropa, Italien, Tirol, Meran
R: erzaehlendes Volks - Lied, Sage, Liebe, Leid, Tod
M: 3/4
L: 1/16
K: F
F2F2A2 | c6d2B2c2 | A4z2
F2F2A2 | c6d2B2c2 | A4z2
F2F2F2 | d4B2B2f2d2 | c6
A2A2A2 | G4c2c2B2cB | A4z2

@@@ Tune index: 3823
